X:1
T:O splendour of God's holy bright
T:O splendour of God's holy bright
T:Saint Ambroise
C:Saint Ambroise
%%score [ 1 2 3 4 ]
L:1/8
Q:1/4=71
M:4/4
K:Bb
V:1 treble nm="Soprano" snm="S."
V:2 treble nm="Alto" snm="A."
V:3 bass nm="Tenor" snm="T."
V:4 bass nm="Bass" snm="B."
V:1
|:"^Adagio" F2 B2 F2 G2 | G2 F2 E2[Q:1/4=40] D2 ||[Q:1/4=71]"^Adagio" D2 E2 D2 C2 | %3
 F2 F2 =E2[Q:1/4=40] F2 ||[Q:1/4=71]"^Adagio" F2 B2 c2 d2 | B2 e2 d2[Q:1/4=40] c2 || %6
[Q:1/4=71]"^Adagio" d2 B2 G2 F2 | B2 B2 A2 B2- | B2 z2 z4 :| z8 |] %10
V:2
|: D2 F2 D2 E2 | B,2 B,3 A, B,2 || B,2 B,2 B,2 A,2 | A,2 D2 C2 C2 || F2 F2 E2 D2 | F2 E2 F2 F2 || %6
 F2 F2 E2 F2 | D2 G2 F2 D2- | D2 z2 z4 :| z8 |] %10
V:3
|: B,2 B,2 B,2 B,2 | E,2 F,2 F,2 F,2 || F,2 E,2 F,2 F,2 | F,2 B,2 G,2 A,2 || F,2 F,2 G,A, B,2 | %5
 B,2 G,A, B,2 A,2 || B,2 B,2 B,2 B,2 | B,2 C2 C2 B,2- | B,2 z2 z4 :| z8 |] %10
V:4
|: B,,2 D,2 B,,2 E,2 | E,2 D,2 F,2 B,,2 || B,,2 G,,2 B,,2 F,,2 | D,2 B,,2 C,2 F,,2 || %4
 F,E, D,2 C,2 B,,2 | D,2 C,2 D,E, F,2 || B,,2 D,2 E,2 D,2 | G,2 E,2 F,2 B,,2- | B,,2 z2 z4 :| z8 |] %10

